;FLAVOR:UltiGCode
;TIME:2216
;MATERIAL:2108
;MATERIAL2:0
;NOZZLE_DIAMETER:0.4

;Generated with Cura_SteamEngine 2.1.3
;LAYER_COUNT:268
;LAYER:0
M107
G10
G0 F7200.000000 X77.818 Y117.746 Z0.300
;TYPE:SKIRT
G11
G1 F1800.000 X78.507 Y117.360 E0.09477
G1 X79.232 Y117.046 E0.18958
G1 X79.985 Y116.807 E0.28438
G1 X80.757 Y116.645 E0.37904
G1 X81.543 Y116.563 E0.47387
G1 X82.333 Y116.560 E0.56867
G1 X83.118 Y116.636 E0.66331
G1 X83.893 Y116.792 E0.75818
G1 X84.647 Y117.026 E0.85292
G1 X85.279 Y117.313 E0.93621
G1 X85.647 Y117.156 E0.98422
G1 X86.401 Y116.920 E1.07903
G1 X87.175 Y116.761 E1.17385
G1 X87.960 Y116.682 E1.26852
G1 X88.750 Y116.682 E1.36332
G1 X89.535 Y116.762 E1.45801
G1 X90.309 Y116.921 E1.55283
G1 X91.062 Y117.158 E1.64756
G1 X91.788 Y117.470 E1.74239
G1 X92.478 Y117.853 E1.83709
G1 X93.127 Y118.304 E1.93192
G1 X93.726 Y118.818 E2.02664
G1 X94.270 Y119.391 E2.12145
G1 X94.753 Y120.015 E2.21614
G1 X95.171 Y120.685 E2.31091
G1 X95.654 Y121.730 E2.44905
G1 X96.101 Y122.920 E2.60160
G1 X96.150 Y122.946 E2.60825
G1 X96.810 Y123.379 E2.70298
G1 X97.423 Y123.878 E2.79783
G1 X98.035 Y124.493 E2.90194
G1 X98.553 Y125.076 E2.99553
G1 X99.047 Y125.692 E3.09028
G1 X99.476 Y126.355 E3.18504
G1 X99.836 Y127.058 E3.27982
G1 X100.123 Y127.794 E3.37462
G1 X100.334 Y128.555 E3.46938
G1 X100.467 Y129.333 E3.56410
G1 X100.521 Y130.121 E3.65888
G1 X100.495 Y130.910 E3.75361
G1 X100.431 Y131.384 E3.81101
G1 X100.720 Y131.432 E3.84616
G1 X100.859 Y131.471 E3.86349
G1 X101.347 Y131.567 E3.92317
G1 X102.113 Y131.758 E4.01790
G1 X103.144 Y132.154 E4.15044
G1 X104.027 Y132.571 E4.26762
G1 X104.074 Y132.595 E4.27395
G1 X104.095 Y132.599 E4.27652
G1 X104.353 Y132.676 E4.30883
G1 X108.317 Y132.030 E4.79078
G1 X109.102 Y131.942 E4.88557
G1 X109.617 Y131.928 E4.94739
G1 X109.961 Y131.930 E4.98867
G1 X110.885 Y131.936 E5.09956
G1 X111.622 Y131.976 E5.18813
G1 X111.697 Y131.984 E5.19718
G1 X112.443 Y131.959 E5.28675
G1 X113.222 Y131.971 E5.38024
G1 X114.357 Y131.948 E5.51647
G1 X115.232 Y131.959 E5.62148
G1 X116.281 Y131.932 E5.74740
G1 X116.287 Y131.932 E5.74812
G1 X116.699 Y131.731 E5.80313
G1 X117.038 Y131.574 E5.84796
G1 X118.339 Y131.007 E6.01826
G1 X119.078 Y130.728 E6.11305
G1 X119.841 Y130.526 E6.20776
G1 X120.621 Y130.402 E6.30254
G1 X121.712 Y130.361 E6.43355
G1 X122.612 Y130.391 E6.54161
G1 X123.218 Y130.353 E6.61447
G1 X123.783 Y130.378 E6.68234
G1 X124.537 Y130.318 E6.77311
G1 X125.326 Y130.336 E6.86781
G1 X126.110 Y130.433 E6.96261
G1 X126.791 Y130.584 E7.04631
G1 X129.560 Y131.331 E7.39047
G1 X129.600 Y131.332 E7.39527
G1 X130.423 Y131.385 E7.49424
G1 X131.944 Y131.363 E7.67678
G1 X134.622 Y131.040 E8.00047
G1 X135.192 Y130.513 E8.09362
G1 X135.246 Y130.468 E8.10206
G1 X136.119 Y128.602 E8.34927
G1 X136.489 Y127.904 E8.44407
G1 X136.928 Y127.248 E8.53879
G1 X137.432 Y126.639 E8.63365
G1 X137.994 Y126.085 E8.72835
G1 X138.562 Y125.624 E8.81614
G1 X140.170 Y124.441 E9.05569
G1 X140.829 Y124.006 E9.15044
G1 X141.528 Y123.640 E9.24513
G1 X142.261 Y123.346 E9.33990
G1 X143.020 Y123.128 E9.43466
G1 X143.797 Y122.988 E9.52940
G1 X144.792 Y122.924 E9.64905
G1 X144.806 Y122.924 E9.65073
G1 X145.595 Y122.964 E9.74553
G1 X146.375 Y123.083 E9.84021
G1 X147.140 Y123.281 E9.93504
G1 X147.880 Y123.555 E10.02973
G1 X148.589 Y123.903 E10.12451
G1 X149.260 Y124.321 E10.21937
G1 X149.884 Y124.804 E10.31406
G1 X150.457 Y125.347 E10.40879
G1 X150.873 Y125.821 E10.48447
G1 X152.684 Y128.062 E10.83023
G1 X153.148 Y128.701 E10.92499
G1 X153.546 Y129.383 E11.01975
G1 X153.873 Y130.102 E11.11453
G1 X154.125 Y130.850 E11.20925
G1 X154.300 Y131.620 E11.30400
G1 X154.397 Y132.404 E11.39880
G1 X154.417 Y132.965 E11.46616
G1 X154.417 Y132.974 E11.46724
G1 X154.377 Y133.763 E11.56205
G1 X154.258 Y134.543 E11.65673
G1 X154.060 Y135.308 E11.75155
G1 X153.786 Y136.048 E11.84625
G1 X153.438 Y136.757 E11.94102
G1 X153.308 Y136.965 E11.97046
G1 X153.310 Y136.968 E11.97089
G1 X153.874 Y137.305 E12.04973
G1 X154.508 Y137.777 E12.14458
G1 X155.090 Y138.310 E12.23928
G1 X155.616 Y138.899 E12.33404
G1 X156.079 Y139.538 E12.42873
G1 X156.476 Y140.221 E12.52353
G1 X156.801 Y140.941 E12.61833
G1 X157.052 Y141.690 E12.71312
G1 X157.096 Y141.892 E12.73793
G1 X157.170 Y141.970 E12.75083
G1 X157.649 Y142.598 E12.84561
G1 X158.038 Y143.231 E12.93477
G1 X158.450 Y143.768 E13.01599
G1 X158.814 Y144.262 E13.08962
G1 X159.381 Y145.078 E13.20886
G1 X159.799 Y145.749 E13.30373
G1 X160.146 Y146.458 E13.39845
G1 X160.420 Y147.199 E13.49325
G1 X160.617 Y147.963 E13.58793
G1 X160.736 Y148.744 E13.68274
G1 X160.776 Y149.532 E13.77742
G1 X160.736 Y150.321 E13.87222
G1 X160.674 Y150.723 E13.92103
G1 X160.620 Y151.359 E13.99762
G1 X160.473 Y152.135 E14.09240
G1 X160.248 Y152.892 E14.18717
G1 X159.948 Y153.623 E14.28199
G1 X159.576 Y154.319 E14.37669
G1 X159.135 Y154.975 E14.47154
G1 X158.631 Y155.582 E14.56622
G1 X158.067 Y156.135 E14.66100
G1 X157.450 Y156.628 E14.75578
G1 X156.787 Y157.057 E14.85054
G1 X156.080 Y157.418 E14.94580
G1 X155.390 Y157.727 E15.03652
G1 X154.617 Y158.025 E15.13594
G1 X154.098 Y158.194 E15.20144
G1 X153.336 Y158.400 E15.29616
G1 X152.557 Y158.528 E15.39089
G1 X151.768 Y158.577 E15.48575
G1 X150.979 Y158.545 E15.58051
G1 X150.197 Y158.434 E15.67529
G1 X149.431 Y158.245 E15.76997
G1 X148.687 Y157.979 E15.86478
G1 X147.974 Y157.639 E15.95957
G1 X147.086 Y157.078 E16.08562
G1 X146.025 Y156.304 E16.24322
G1 X145.411 Y155.807 E16.33801
G1 X145.034 Y155.433 E16.40173
G1 X144.629 Y155.241 E16.45552
G1 X143.954 Y154.833 E16.55016
G1 X143.323 Y154.358 E16.64494
G1 X142.743 Y153.822 E16.73971
G1 X142.220 Y153.230 E16.83450
G1 X142.184 Y153.180 E16.84190
G1 X141.988 Y153.028 E16.87166
G1 X141.817 Y152.970 E16.89333
G1 X141.098 Y152.644 E16.98806
G1 X140.415 Y152.246 E17.08292
G1 X139.777 Y151.782 E17.17759
G1 X139.188 Y151.256 E17.27235
G1 X138.843 Y150.891 E17.33262
G1 X138.037 Y149.983 E17.47831
G1 X137.630 Y149.662 E17.54052
G1 X137.062 Y149.114 E17.63523
G1 X136.553 Y148.510 E17.73001
G1 X136.304 Y148.146 E17.78293
G1 X136.022 Y148.059 E17.81835
G1 X131.817 Y148.357 E18.32421
G1 X131.266 Y148.376 E18.39037
G1 X130.112 Y148.367 E18.52886
G1 X128.730 Y148.300 E18.69489
G1 X127.723 Y148.185 E18.81652
G1 X126.853 Y148.028 E18.92260
G1 X126.809 Y148.018 E18.92802
G1 X124.110 Y147.531 E19.25713
G1 X123.956 Y147.528 E19.27561
G1 X123.898 Y147.562 E19.28368
G1 X123.182 Y147.893 E19.37834
G1 X122.435 Y148.150 E19.47313
G1 X121.852 Y148.295 E19.54523
G1 X121.226 Y148.425 E19.62195
G1 X121.100 Y148.466 E19.63785
G1 X120.455 Y148.647 E19.71824
G1 X118.741 Y149.050 E19.92953
G1 X117.964 Y149.192 E20.02431
G1 X117.177 Y149.254 E20.11904
G1 X116.823 Y149.246 E20.16153
G1 X116.338 Y149.334 E20.22068
G1 X115.555 Y149.435 E20.31542
G1 X114.766 Y149.457 E20.41014
G1 X113.870 Y149.385 E20.51801
G1 X112.246 Y149.159 E20.71476
G1 X111.762 Y149.141 E20.77288
G1 X111.524 Y149.175 E20.80173
G1 X110.736 Y149.209 E20.89638
G1 X110.331 Y149.187 E20.94505
G1 X110.045 Y149.253 E20.98028
G1 X109.143 Y149.415 E21.09025
G1 X108.360 Y149.515 E21.18497
G1 X107.570 Y149.536 E21.27981
G1 X106.783 Y149.476 E21.37452
G1 X106.730 Y149.468 E21.38095
G1 X105.040 Y149.638 E21.58477
G1 X104.330 Y149.677 E21.67010
G1 X101.877 Y149.700 E21.96448
G1 X101.475 Y149.796 E22.01407
G1 X101.030 Y149.865 E22.06811
G1 X100.193 Y149.971 E22.16935
G1 X100.110 Y149.977 E22.17934
G1 X98.659 Y150.272 E22.35702
G1 X98.214 Y150.339 E22.41102
G1 X98.059 Y150.804 E22.46984
G1 X97.771 Y151.540 E22.56468
G1 X97.410 Y152.242 E22.65941
G1 X96.981 Y152.905 E22.75417
G1 X96.949 Y152.945 E22.76032
G1 X96.815 Y153.245 E22.79975
G1 X96.423 Y153.930 E22.89445
G1 X95.963 Y154.572 E22.98923
G1 X95.611 Y154.972 E23.05317
G1 X95.614 Y154.987 E23.05500
G1 X95.715 Y155.770 E23.14974
G1 X95.737 Y156.559 E23.24446
G1 X95.679 Y157.347 E23.33927
G1 X95.541 Y158.124 E23.43397
G1 X95.326 Y158.884 E23.52875
G1 X95.035 Y159.618 E23.62350
G1 X94.671 Y160.319 E23.71829
G1 X94.238 Y160.979 E23.81301
G1 X93.740 Y161.593 E23.90788
G1 X93.183 Y162.153 E24.00266
G1 X92.573 Y162.653 E24.09731
G1 X91.915 Y163.090 E24.19209
G1 X91.138 Y163.493 E24.29713
G1 X88.919 Y164.491 E24.58910
G1 X88.184 Y164.778 E24.68379
G1 X87.423 Y164.989 E24.77855
G1 X86.644 Y165.122 E24.87338
G1 X85.720 Y165.177 E24.98446
G1 X85.707 Y165.177 E24.98602
G1 X84.918 Y165.137 E25.08082
G1 X84.138 Y165.018 E25.17551
G1 X83.373 Y164.820 E25.27033
G1 X82.633 Y164.546 E25.36502
G1 X81.924 Y164.198 E25.45980
G1 X81.253 Y163.780 E25.55466
G1 X80.629 Y163.297 E25.64936
G1 X80.247 Y162.935 E25.71251
G1 X79.940 Y162.718 E25.75762
G1 X79.345 Y162.199 E25.85237
G1 X78.805 Y161.623 E25.94711
G1 X78.327 Y160.995 E26.04182
G1 X77.914 Y160.322 E26.13657
G1 X77.527 Y159.503 E26.24527
G1 X76.562 Y157.110 E26.55490
G1 X76.304 Y156.364 E26.64963
G1 X76.123 Y155.595 E26.74443
G1 X76.021 Y154.812 E26.83918
G1 X75.996 Y154.193 E26.91352
G1 X75.996 Y154.192 E26.91364
G1 X76.036 Y153.403 E27.00844
G1 X76.137 Y152.743 E27.08857
G1 X76.045 Y152.103 E27.16615
G1 X76.012 Y151.314 E27.26092
G1 X76.060 Y150.525 E27.35577
G1 X76.187 Y149.746 E27.45049
G1 X76.294 Y149.349 E27.49983
G1 X76.276 Y148.882 E27.55591
G1 X76.325 Y148.094 E27.65065
G1 X76.454 Y147.315 E27.74540
G1 X76.661 Y146.553 E27.84016
G1 X76.944 Y145.816 E27.93489
G1 X77.103 Y145.502 E27.97713
G1 X77.126 Y145.247 E28.00785
G1 X77.278 Y144.473 E28.10251
G1 X77.508 Y143.717 E28.19733
G1 X77.812 Y142.988 E28.29211
G1 X77.908 Y142.811 E28.31628
G1 X77.791 Y142.729 E28.33342
G1 X77.194 Y142.212 E28.42819
G1 X76.652 Y141.638 E28.52293
G1 X76.359 Y141.272 E28.57919
G1 X75.913 Y140.680 E28.66813
G1 X75.470 Y140.026 E28.76292
G1 X75.096 Y139.331 E28.85763
G1 X74.794 Y138.601 E28.95243
G1 X74.568 Y137.845 E29.04712
G1 X74.418 Y137.070 E29.14184
G1 X74.349 Y136.283 E29.23664
G1 X74.359 Y135.493 E29.33145
G1 X74.448 Y134.709 E29.42614
G1 X74.617 Y133.937 E29.52097
G1 X74.863 Y133.187 E29.61569
G1 X75.152 Y132.535 E29.70127
G1 X75.088 Y132.401 E29.71909
G1 X74.819 Y131.659 E29.81380
G1 X74.627 Y130.893 E29.90856
G1 X74.513 Y130.111 E30.00340
G1 X74.479 Y129.322 E30.09816
G1 X74.482 Y129.265 E30.10501
G1 X74.459 Y129.209 E30.11228
G1 X74.191 Y128.466 E30.20706
G1 X74.000 Y127.700 E30.30180
G1 X73.887 Y126.918 E30.39661
G1 X73.854 Y126.125 E30.49185
G1 X73.867 Y124.713 E30.66130
G1 X73.915 Y123.925 E30.75603
G1 X74.041 Y123.145 E30.85085
G1 X74.246 Y122.383 E30.94554
G1 X74.527 Y121.645 E31.04030
G1 X74.881 Y120.939 E31.13508
G1 X75.251 Y120.350 E31.21854
G1 X75.551 Y119.916 E31.28186
G1 X76.032 Y119.290 E31.37659
G1 X76.574 Y118.716 E31.47132
G1 X77.172 Y118.199 E31.56618
G1 X77.818 Y117.746 E31.66086
G0 F7200.00000 X78.099 Y118.042
G1 F1800.000 X78.775 Y117.675 E31.75317
G1 X79.485 Y117.380 E31.84543
G1 X80.222 Y117.160 E31.93773
G1 X80.978 Y117.017 E32.03005
G1 X81.744 Y116.954 E32.12229
G1 X82.513 Y116.971 E32.21459
G1 X83.276 Y117.068 E32.30688
G1 X84.025 Y117.243 E32.39919
G1 X84.752 Y117.495 E32.49152
G1 X85.280 Y117.746 E32.56167
G1 X85.861 Y117.504 E32.63720
G1 X86.598 Y117.283 E32.72953
G1 X87.354 Y117.140 E32.82186
G1 X88.120 Y117.076 E32.91410
G1 X88.889 Y117.092 E33.00640
G1 X89.652 Y117.187 E33.09867
G1 X90.401 Y117.361 E33.19094
G1 X91.128 Y117.613 E33.28327
G1 X91.825 Y117.938 E33.37556
G1 X92.485 Y118.334 E33.46792
G1 X93.100 Y118.796 E33.56022
G1 X93.663 Y119.319 E33.65244
G1 X94.169 Y119.898 E33.74471
G1 X94.613 Y120.527 E33.83710
G1 X94.988 Y121.198 E33.92934
G1 X95.280 Y121.871 E34.01738
G1 X95.782 Y123.208 E34.18875
G1 X96.119 Y123.394 E34.23494
G1 X96.750 Y123.835 E34.32732
G1 X97.331 Y124.338 E34.41954
G1 X97.736 Y124.759 E34.48964
G1 X98.254 Y125.342 E34.58323
G1 X98.734 Y125.943 E34.67553
G1 X99.150 Y126.590 E34.76783
G1 X99.495 Y127.277 E34.86008
G1 X99.768 Y127.996 E34.95237
G1 X99.965 Y128.740 E35.04473
G1 X100.083 Y129.500 E35.13702
G1 X100.122 Y130.268 E35.22930
G1 X100.081 Y131.036 E35.32159
G1 X99.973 Y131.712 E35.40374
G1 X100.673 Y131.832 E35.48896
G1 X100.788 Y131.864 E35.50329
G1 X101.269 Y131.959 E35.56212
G1 X102.015 Y132.147 E35.65444
G1 X102.975 Y132.517 E35.77790
G1 X103.847 Y132.928 E35.89358
G1 X103.948 Y132.979 E35.90716
G1 X104.035 Y132.997 E35.91782
G1 X104.327 Y133.084 E35.95438
G1 X108.381 Y132.424 E36.44727
G1 X109.146 Y132.340 E36.53962
G1 X109.615 Y132.328 E36.59592
G1 X109.958 Y132.330 E36.63708
G1 X110.882 Y132.336 E36.74796
G1 X111.581 Y132.374 E36.83197
G1 X111.691 Y132.385 E36.84523
G1 X111.717 Y132.383 E36.84836
G1 X112.437 Y132.359 E36.93481
G1 X113.224 Y132.371 E37.02926
G1 X114.352 Y132.348 E37.16465
G1 X115.238 Y132.359 E37.27098
G1 X116.281 Y132.332 E37.39618
G1 X116.323 Y132.332 E37.40122
G1 X116.373 Y132.335 E37.40723
G1 X116.874 Y132.090 E37.47415
G1 X117.198 Y131.940 E37.51700
G1 X118.499 Y131.373 E37.68730
G1 X119.219 Y131.103 E37.77958
G1 X119.963 Y130.909 E37.87184
G1 X120.723 Y130.793 E37.96410
G1 X121.699 Y130.761 E38.08128
G1 X122.599 Y130.791 E38.18934
G1 X122.693 Y130.778 E38.20073
G1 X123.462 Y130.755 E38.29305
G1 X123.813 Y130.776 E38.33524
G1 X124.568 Y130.717 E38.42612
G1 X125.337 Y130.738 E38.51843
G1 X126.100 Y130.837 E38.61076
G1 X126.686 Y130.970 E38.68287
G1 X129.499 Y131.728 E39.03247
G1 X129.575 Y131.731 E39.04160
G1 X130.416 Y131.785 E39.14273
G1 X131.970 Y131.763 E39.32922
G1 X134.800 Y131.421 E39.67130
G1 X135.464 Y130.807 E39.77982
G1 X135.570 Y130.719 E39.79635
G1 X136.481 Y128.771 E40.05441
G1 X136.843 Y128.092 E40.14675
G1 X137.273 Y127.455 E40.23897
G1 X137.767 Y126.865 E40.33131
G1 X138.320 Y126.330 E40.42365
G1 X138.799 Y125.946 E40.49732
G1 X140.407 Y124.763 E40.73687
G1 X141.049 Y124.340 E40.82913
G1 X141.732 Y123.986 E40.92144
G1 X142.448 Y123.705 E41.01374
G1 X143.189 Y123.500 E41.10601
G1 X143.948 Y123.372 E41.19837
G1 X144.792 Y123.324 E41.29981
G1 X144.806 Y123.324 E41.30149
G1 X145.574 Y123.364 E41.39378
G1 X146.334 Y123.483 E41.48609
G1 X147.077 Y123.681 E41.57836
G1 X147.796 Y123.955 E41.67070
G1 X148.482 Y124.302 E41.76295
G1 X149.129 Y124.718 E41.85525
G1 X149.729 Y125.199 E41.94753
G1 X150.276 Y125.740 E42.03985
G1 X150.562 Y126.073 E42.09253
G1 X152.373 Y128.314 E42.43828
G1 X152.824 Y128.936 E42.53048
G1 X153.209 Y129.602 E42.62279
G1 X153.522 Y130.305 E42.71513
G1 X153.761 Y131.036 E42.80742
G1 X153.923 Y131.788 E42.89973
G1 X154.006 Y132.553 E42.99207
G1 X154.017 Y132.965 E43.04153
G1 X154.017 Y132.974 E43.04261
G1 X153.977 Y133.742 E43.13490
G1 X153.858 Y134.502 E43.22721
G1 X153.660 Y135.245 E43.31948
G1 X153.386 Y135.964 E43.41181
G1 X153.039 Y136.650 E43.50406
G1 X152.839 Y136.961 E43.54843
G1 X153.022 Y137.261 E43.59060
G1 X153.044 Y137.272 E43.59355
G1 X153.702 Y137.671 E43.68590
G1 X154.314 Y138.136 E43.77813
G1 X154.876 Y138.662 E43.87050
G1 X155.379 Y139.244 E43.96281
G1 X155.819 Y139.875 E44.05512
G1 X156.192 Y140.548 E44.14746
G1 X156.492 Y141.255 E44.23962
G1 X156.718 Y141.991 E44.33201
G1 X156.740 Y142.098 E44.34512
G1 X156.890 Y142.259 E44.37152
G1 X157.353 Y142.874 E44.46390
G1 X157.695 Y143.441 E44.54336
G1 X158.130 Y144.008 E44.62911
G1 X158.486 Y144.490 E44.70102
G1 X159.053 Y145.306 E44.82026
G1 X159.458 Y145.960 E44.91257
G1 X159.794 Y146.652 E45.00488
G1 X160.056 Y147.375 E45.09716
G1 X160.241 Y148.122 E45.18951
G1 X160.348 Y148.884 E45.28185
G1 X160.375 Y149.652 E45.37406
G1 X160.322 Y150.420 E45.46644
G1 X160.277 Y150.677 E45.49775
G1 X160.221 Y151.325 E45.57580
G1 X160.075 Y152.080 E45.66808
G1 X159.851 Y152.816 E45.76040
G1 X159.552 Y153.525 E45.85274
G1 X159.181 Y154.198 E45.94495
G1 X158.743 Y154.830 E46.03723
G1 X158.241 Y155.413 E46.12955
G1 X157.681 Y155.941 E46.22191
G1 X157.069 Y156.407 E46.31421
G1 X156.413 Y156.808 E46.40648
G1 X155.916 Y157.053 E46.47297
G1 X155.226 Y157.362 E46.56369
G1 X154.493 Y157.644 E46.65794
G1 X153.974 Y157.813 E46.72344
G1 X153.231 Y158.013 E46.81577
G1 X152.472 Y158.135 E46.90802
G1 X151.704 Y158.177 E47.00032
G1 X150.936 Y158.139 E47.09259
G1 X150.176 Y158.022 E47.18486
G1 X149.432 Y157.826 E47.27719
G1 X148.712 Y157.554 E47.36955
G1 X148.025 Y157.210 E47.46175
G1 X147.322 Y156.755 E47.56224
G1 X146.261 Y155.981 E47.71983
G1 X145.664 Y155.496 E47.81213
